src/categories-icons-sprite/categories/svg-cat-child-feeding.svg

<svg width="22" height="42" viewBox="0 0 22 42" fill="none" xmlns="http://www.w3.org/2000/svg">
<path class="p-2682FF" d="M19.9011 13.877C19.9011 9.72908 17.1428 6.22601 13.3606 5.10021V2.61622C13.3607 1.17132 12.1894 0 10.7445 0L9.10254 15.5189L19.9011 13.877Z" fill="#65B3E7"/>
<path class="p-8CBCFF" d="M10.7446 0C9.29965 0 8.12833 1.17132 8.12833 2.61622V5.10021C4.34611 6.22601 1.58789 9.72908 1.58789 13.877L10.7446 15.5189V0Z" fill="#AFD9F6"/>
<path class="p-F4E2E2" d="M1.58789 13.877V42H10.7446L12.3865 26.5527L10.7446 13.877H1.58789Z" fill="#B9DFFC"/>
<path class="p-E3D0C9" d="M10.7442 13.877V18.8594H5.51172V21.3203H10.7442V24.0917H5.51172V26.5527H10.7442V29.3242H5.51172V31.7851H10.7442V34.5566H5.51172V37.0176H10.7442V42H19.9008V13.877H10.7442Z" fill="#A1D1FD"/>
<path class="p-3440DB" d="M21.4894 12.6465H9.8698L9.04883 13.877L9.8698 15.1074H21.4894V12.6465Z" fill="#4D98CB"/>
<path class="p-2682FF" d="M10.7446 12.6465H0V15.1074H10.7446V12.6465Z" fill="#58ADE5"/>
</svg>

<svg width="22" height="42" fill="none" xmlns="http://www.w3.org/2000/svg"><path class="p-2682FF" d="M19.901 13.877c0-4.148-2.758-7.651-6.54-8.777V2.616A2.616 2.616 0 0010.744 0L9.104 15.519 19.9 13.877z" fill="#65B3E7"/><path class="p-8CBCFF" d="M10.745 0a2.616 2.616 0 00-2.617 2.616V5.1a9.16 9.16 0 00-6.54 8.777l9.157 1.642V0z" fill="#AFD9F6"/><path class="p-F4E2E2" d="M1.588 13.877V42h9.157l1.642-15.447-1.642-12.676H1.588z" fill="#B9DFFC"/><path class="p-E3D0C9" d="M10.744 13.877v4.982H5.512v2.461h5.232v2.772H5.512v2.46h5.232v2.772H5.512v2.461h5.232v2.772H5.512v2.46h5.232V42h9.157V13.877h-9.157z" fill="#A1D1FD"/><path class="p-3440DB" d="M21.49 12.646H9.87l-.821 1.231.82 1.23h11.62v-2.46z" fill="#4D98CB"/><path class="p-2682FF" d="M10.745 12.646H0v2.461h10.745v-2.46z" fill="#58ADE5"/></svg>
